resources/dark/presence.svg

<svg fill="none" height="16" viewBox="0 0 16 16" width="16" xmlns="http://www.w3.org/2000/svg" xmlns:xlink="http://www.w3.org/1999/xlink"><linearGradient id="a" gradientUnits="userSpaceOnUse" x1="8" x2="8" y1="3" y2="12.75"><stop offset="0" stop-color="#7178f5"/><stop offset="1" stop-color="#926ef7"/></linearGradient><path d="m11.6 4.21875v4.875h-7.2v-4.875zm.3-1.21875h-7.8c-.49687 0-.9.40942-.9.91406v5.48438c0 .50464.40313.91406.9.91406h7.8c.4969 0 .9-.40942.9-.91406v-5.48438c0-.50464-.4031-.91406-.9-.91406zm1.875 7.9219h-4.47187c-.05625 0-.10313.04-.11063.0971-.045.2894-.2925.5122-.5925.5122h-1.2c-.3 0-.5475-.2228-.5925-.5122-.00937-.0552-.05625-.0971-.11062-.0971h-4.47188c-.12375 0-.225.1028-.225.2285v.6855c0 .5047.40313.9141.9.9141h10.2c.4969 0 .9-.4094.9-.9141v-.6855c0-.1257-.1012-.2285-.225-.2285z" fill="url(#a)"/></svg>

<svg width="16" height="16" viewBox="0 0 16 16" fill="none" xmlns="http://www.w3.org/2000/svg">
<path d="M11.6 4.21875V9.09375H4.4V4.21875H11.6ZM11.9 3H4.1C3.60313 3 3.2 3.40942 3.2 3.91406V9.39844C3.2 9.90308 3.60313 10.3125 4.1 10.3125H11.9C12.3969 10.3125 12.8 9.90308 12.8 9.39844V3.91406C12.8 3.40942 12.3969 3 11.9 3ZM13.775 10.9219H9.30313C9.24688 10.9219 9.2 10.9619 9.1925 11.019C9.1475 11.3084 8.9 11.5312 8.6 11.5312H7.4C7.1 11.5312 6.8525 11.3084 6.8075 11.019C6.79813 10.9638 6.75125 10.9219 6.69688 10.9219H2.225C2.10125 10.9219 2 11.0247 2 11.1504V11.8359C2 12.3406 2.40313 12.75 2.9 12.75H13.1C13.5969 12.75 14 12.3406 14 11.8359V11.1504C14 11.0247 13.8988 10.9219 13.775 10.9219Z" fill="url(#paint0_linear)"/>
<defs>
<linearGradient id="paint0_linear" x1="8" y1="3" x2="8" y2="12.75" gradientUnits="userSpaceOnUse">
<stop stop-color="#7178F5"/>
<stop offset="1" stop-color="#926EF7"/>
</linearGradient>
</defs>
</svg>
